icons-rebrand/svg/backspace-bold.svg

<svg width="32" height="32" viewBox="0 0 32 32" fill="none" xmlns="http://www.w3.org/2000/svg">
<path d="M24.999 6H12.566C11.8856 6.00069 11.2124 6.13999 10.5877 6.4094C9.96287 6.67881 9.39951 7.07269 8.93197 7.567L2.54397 14.19C2.20645 14.5492 2.01345 15.0204 2.002 15.5131C1.99056 16.0059 2.16148 16.4855 2.48197 16.86L8.87397 24.227C9.34301 24.7831 9.92795 25.2299 10.5878 25.5361C11.2477 25.8424 11.9665 26.0007 12.694 26H24.999C26.3246 25.9984 27.5954 25.4711 28.5327 24.5338C29.4701 23.5964 29.9974 22.3256 29.999 21V11C29.9974 9.6744 29.4701 8.40356 28.5327 7.46622C27.5954 6.52888 26.3246 6.00159 24.999 6ZM27.999 21C27.9982 21.7954 27.6819 22.558 27.1194 23.1204C26.557 23.6829 25.7944 23.9992 24.999 24H12.693C12.2544 23.9998 11.8212 23.9036 11.4239 23.7181C11.0265 23.5325 10.6746 23.2622 10.393 22.926L3.99297 15.569L10.38 8.946C10.6609 8.64798 10.9996 8.41039 11.3755 8.24773C11.7513 8.08508 12.1564 8.00078 12.566 8H25C25.7954 8.00079 26.558 8.31712 27.1204 8.87956C27.6828 9.44199 27.9992 10.2046 28 11V21H27.999Z" fill="#0F0F0F"/>
<path d="M24.708 11.293C24.5204 11.1056 24.2661 11.0002 24.001 11.0002C23.7358 11.0002 23.4815 11.1056 23.294 11.293L20 14.586L16.707 11.293C16.5193 11.1055 16.2649 11.0002 15.9996 11.0003C15.7343 11.0004 15.48 11.1059 15.2925 11.2935C15.1049 11.4812 14.9997 11.7356 14.9998 12.0009C14.9998 12.2662 15.1053 12.5205 15.293 12.708L18.587 16L15.294 19.294C15.1118 19.4826 15.011 19.7352 15.0133 19.9974C15.0156 20.2596 15.1207 20.5104 15.3061 20.6958C15.4915 20.8813 15.7424 20.9864 16.0046 20.9887C16.2668 20.991 16.5194 20.8902 16.708 20.708L20 17.415L23.293 20.708C23.4816 20.8902 23.7342 20.991 23.9964 20.9887C24.2586 20.9864 24.5094 20.8813 24.6948 20.6958C24.8802 20.5104 24.9854 20.2596 24.9876 19.9974C24.9899 19.7352 24.8891 19.4826 24.707 19.294L21.415 16L24.708 12.707C24.8009 12.6142 24.8746 12.504 24.925 12.3827C24.9753 12.2614 25.0012 12.1314 25.0012 12C25.0012 11.8687 24.9753 11.7387 24.925 11.6173C24.8746 11.496 24.8009 11.3858 24.708 11.293Z" fill="#0F0F0F"/>
</svg>

<svg width="32" height="32" viewBox="0 0 32 32" fill="none" xmlns="http://www.w3.org/2000/svg"><path d="M24.999 6H12.566a5.009 5.009 0 0 0-3.634 1.567L2.544 14.19a2 2 0 0 0-.062 2.67l6.392 7.367A4.991 4.991 0 0 0 12.694 26h12.305a5.006 5.006 0 0 0 5-5V11a5.006 5.006 0 0 0-5-5zm3 15a3.003 3.003 0 0 1-3 3H12.693a3.002 3.002 0 0 1-2.3-1.074l-6.4-7.357 6.387-6.623A3.012 3.012 0 0 1 12.566 8H25a3.003 3.003 0 0 1 3 3v10z" fill="#0F0F0F"/><path d="M24.708 11.293a1 1 0 0 0-1.414 0L20 14.586l-3.293-3.293a1 1 0 0 0-1.414 1.415L18.587 16l-3.293 3.294a1 1 0 0 0 1.414 1.414L20 17.415l3.293 3.293a1 1 0 0 0 1.414-1.414L21.415 16l3.293-3.293a.999.999 0 0 0 0-1.414z" fill="#0F0F0F"/></svg>
